X:18
T:Lasses of Lynn. JJo.018, The
B:J.Johnson Choice Collection Vol 8 1758
Z:vmp.Simon Wilson 2013 www.village-music-project.org.uk
Z:Dance added by John Chambers 2017
M:C|
L:1/8
%Q:1/2=80
K:G
c |\
B>A (B/c/d) G2-GF/E/ | DFAB cA2c |\
B>A (B/c/d) G2Gg | d>edc BG2 :|
|: g |\
"tr"f>edg "tr"f>ede | fgaB cA2g |\
"tr"f>efg "tr"f>ede | (f/g/a) (A/B/c) BG2 :|
%%begintext align
%% Cast off two Cu .| Lead up to
%% the top and cast off :| Right hand
%% across at Bottom :||. Right hands
%% and Left at top :||: foot it at
%% both Corners and turn :|| Lead
%% out on both Sides and turn :||:
%%endtext
